X: 1852
T: Sally Sloane's Varsovienna
B: australian traditional tunes wiki
M:3/4
L:1/8
R: Varsovienne
Q: 1/4=100
K:G
V:1 
B>c|"G"d2 c2 A2|G4 B>c|d2 g2 f2|"C"e4 f>g|
"D"a2 g2 (3efe|"G"d4 c>B|"D"c2 A2 F2|"G"G4:|
g2|"D"fe c2 e2|"G"dB G2 BG|"D"c2 A2 e2|"G"d4 g2|
"D"fe c2 e2|"G"dB GA BG|"D"c>A F2 A2|"G"G4:|
% abcbook-tune_id 6342d53a8f5874e6af739d27


% abcbook-boost 0
% abcbook-tablature 
% abcbook-transpose 
% abcbook-lastupdated 1665324388233
% abcbook-soundfonts 
% abcbook-repeats 1
% NFF Book 2018

